X: 1687
T: Sebep Sensin Gönülde İhtilâle
C: Mustafa Nafiz Irmak
O: Turkey
F: http://compmusic.upf.edu/node/140
N: sevkefza--sarki--curcuna--sebep_sensin--mustafa_nafiz_irmak
N: makam= sevkefza
N: form= sarki
N: usul= curcuna = 10/8
M: 10/8
L: 1/16
K: C _B _7/8d  
Q: 1/4=174
%%MIDI tuningsystem comma53
z4 f2g4g8-g2  | g4 _7/8a2g2 f2e2 f2g6  | \
w:   |   | 
z4 g2_7/8a2 _1/4b2c'2 b2a2 g2f2  | 
w:   | 
g4 _7/8a2g2 f2e2 f2g6  | z4 e2f4f2 e2f6  | \
w:   |   | 
_7/8a2g2 f2e2 d2c2 d2e6  | 
w:   | 
z4 d2e4e2 d2e4_7/8a2  | _7/8a2g2 f2e2 d2c2 _1/4B2c6  | \
w:   |   | 
z4 c2d4d4d2 c2B2  | 
w:   | 
c4 d2c2 B2B2 A2B6  | z4 G2_7/8A4A4A2 G2F2  | \
w:   |   | 
G4 _7/8A2G2 F2F2 E2F4z2  | 
w:   | 
z4 f2g4g8-g2  | g4 _7/8a2g2 f2e2 f2g6  | \
w:   |   | 
z4 g2_7/8a2 _1/4b2c'2 b2a2 g2f2  | 
w:   | 
g4 _7/8a2g2 f2e2 f2g6  | z4 e2f4f2 e2f6  | \
w:   |   | 
_7/8a2g2 f2e2 d2c2 d2e6  | 
w:   | 
z4 d2e4e2 d2e4_7/8a2  | _7/8a2g2 f2e2 d2c2 _1/4B2c6  | \
w:   |   | 
z4 c2d4d4d2 c2B2  | 
w:   | 
c4 d2c2 B2B2 A2B6  | z4 G2_7/8A4A4A2 G2F2  | \
w:   |   | 
G4 _7/8A2G2 F2F2 E2F4z2  | 
w:   | 
g4 f2g4g4g6  | z4 g2_7/8a4g2 f2e6  | \
w:  *  Se bep  sen sin   |  gö nül de  *  ih  | 
f2f2 e2d2 c2c2 d2e2 f2g2  | 
w:  ti *  lâ *  *  le    | 
g4 f2g4g4g6  | z4 g2_7/8a4g2 f2e6  | \
w:  *  Se bep  sen sin   |  gö nül de  *  ih  | 
f2f2 e2d2 c2c8-c2  | z4 _7/8a2g2 f2f2 e2f6  | 
w:  ti *  lâ *  *  le    |  SAZ  | 
z4 e2f4f4f4e2  | d4 e2e4e4f2 e2d2  | \
w:  Sü rük ler sin   |  *  be ni  son suz   | 
c4 c4 g2f2 e2d2 c2B2  | 
w:  me lâ *  le    | 
B4 B2B4B4B4_7/8A2  | _7/8A4 A2A4A2 G2c2 _1/4B2A2  | \
w:  *  Sü rük ler sin   |  *  be ni  son *  suz   | 
_7/8A2G2 F2F2 E2F8-F2  | 
w:  me *  lâ *  *  le    | 
c4 d2c2 _1/4B2A2 B2c6  | z4 G2c4c4c6  | \
w:  SAZ  |  Bi lir sin  müp  | 
c4 c4 d2d2 c2c4_1/4B2  | c2d2 c4 _1/4B2c2 d2c2 B2A2  | 
w:  te lâ *  yım  *  ben   |  e *  zel *  den    | 
A4 G2c4c4c6  | d4 e6f2 f2e2 d2c2  | f4 e2d2 c2c8-c2  | \
w:  *  Bi lir sin  müp  |  te lâ yım  *  ben   |  e zel *  *  den    | 
z4 _7/8a2g2 f2f2 e2f6  | 
w:  SAZ  | 
z4 e2f4f4f4e2  | d4 e2e4e4f2 e2d2  | \
w:  Be lâ yı  â  |  *  te şe  bel ki   | 
c4 c4 g2f2 e2d2 c2B2  | 
w:  ha ya *  le    | 
B4 B2B4B4B4_7/8A2  | _7/8A4 A2A4A2 G2c2 _1/4B2A2  | \
w:  *  Be lâ yı  â  |  *  te şe  bel *  ki   | 
_7/8A2G2 F2F2 E2F8z2  | 
w:  ha *  ya *  *  le    | 
z4 f2g4g8-g2  | g4 _7/8a2g2 f2e2 f2g6  | \
w:   |   | 
z4 g2_7/8a2 _1/4b2c'2 b2a2 g2f2  | 
w:   | 
g4 _7/8a2g2 f2e2 f2g6  | z4 e2f4f2 e2f6  | \
w:   |   | 
_7/8a2g2 f2e2 d2c2 d2e6  | 
w:   | 
z4 d2e4e2 d2e4_7/8a2  | _7/8a2g2 f2e2 d2c2 _1/4B2c6  | \
w:   |   | 
z4 c2d4d4d2 c2B2  | 
w:   | 
c4 d2c2 B2B2 A2B6  | z4 G2_7/8A4A4A2 G2F2  | \
w:   |   | 
G4 _7/8A2G2 F2F2 E2F4z2  | 
w:   | 
z4 f2g4g8-g2  | g4 _7/8a2g2 f2e2 f2g6  | \
w:   |   | 
z4 g2_7/8a2 _1/4b2c'2 b2a2 g2f2  | 
w:   | 
g4 _7/8a2g2 f2e2 f2g6  | z4 e2f4f2 e2f6  | \
w:   |   | 
_7/8a2g2 f2e2 d2c2 d2e6  | 
w:   | 
z4 d2e4e2 d2e4_7/8a2  | _7/8a2g2 f2e2 d2c2 _1/4B2c6  | \
w:   |   | 
z4 c2d4d4d2 c2B2  | 
w:   | 
c4 d2c2 B2B2 A2B6  | z4 G2_7/8A4A4A2 G2F2  | \
w:   |   | 
G4 _7/8A2G2 F2F2 E2F4z2  | 
w:   | 
g4 f2g4g4g6  | z4 g2_7/8a4g2 f2e6  | \
w:  *  Se bep  sen sin   |  gö nül de  *  ih  | 
f2f2 e2d2 c2c2 d2e2 f2g2  | 
w:  ti *  lâ *  *  le    | 
g4 f2g4g4g6  | z4 g2_7/8a4g2 f2e6  | \
w:  *  Se bep  sen sin   |  gö nül de  *  ih  | 
f2f2 e2d2 c2c8-c2  | z4 _7/8a2g2 f2f2 e2f6  | 
w:  ti *  lâ *  *  le    |  SAZ  | 
z4 e2f4f4f4e2  | d4 e2e4e4f2 e2d2  | \
w:  Sü rük ler sin   |  *  be ni  son suz   | 
c4 c4 g2f2 e2d2 c2B2  | 
w:  me lâ *  le    | 
B4 B2B4B4B4_7/8A2  | _7/8A4 A2A4A2 G2c2 _1/4B2A2  | \
w:  *  Sü rük ler sin   |  *  be ni  son *  suz   | 
_7/8A2G2 F2F2 E2F8-F2  | 
w:  me *  lâ *  *  le    | 
c4 d2c2 _1/4B2A2 B2c6  | z4 G2c4c4c6  | \
w:  SAZ  |  Bi lir sin  müp  | 
c4 c4 d2d2 c2c4_1/4B2  | c2d2 c4 _1/4B2c2 d2c2 B2A2  | 
w:  te lâ *  yım  *  ben   |  e *  zel *  den    | 
A4 G2c4c4c6  | d4 e6f2 f2e2 d2c2  | f4 e2d2 c2c8-c2  | \
w:  *  Bi lir sin  müp  |  te lâ yım  *  ben   |  e zel *  *  den    | 
z4 _7/8a2g2 f2f2 e2f6  | 
w:  SAZ  | 
z4 e2f4f4f4e2  | d4 e2e4e4f2 e2d2  | \
w:  Be lâ yı  â  |  *  te şe  bel ki   | 
c4 c4 g2f2 e2d2 c2B2  | 
w:  ha ya *  le    | 
B4 B2B4B4B4_7/8A2  | _7/8A4 A2A4A2 G2c2 _1/4B2A2  | \
w:  *  Be lâ yı  â  |  *  te şe  bel *  ki   | 
_7/8A2G2 F2F2 E2F8z2  | 
w:  ha *  ya *  *  le    | 
|


